X: 281
T: MISS WEMYSS OF DUNDEE
C: J. WALKER
R: Reel
B: Glen Collection p.28 #1
Z: 2011 John Chambers <jc:trillian.mit.edu>
M: C
L: 1/8
V: 1 clef=treble middle=B
V: 2 clef=bass middle=d
%%score {1 | 2}
K: Bb
%
V: 1
A |\
BFDF EGFA | BFDF ECCA | BADF EGFB | AcFA BB,B, :|
d |\
BfdB AcBA | BfdB Ac-Tc2 |BfdB AcBA | BGFE DB,B,A |
BfdB AcBA | BfdB AccA | BcdB cdec | dgfe dBB |]
%
V: 2
z |\
B2[b2f2] [a2f2][e'2f2] | [d'2b2][b2f2] [a2f2]f2 |\
B2[b2f2] [a2f2][b2d2]  | f2[e'2c'2] [d'2b2]B :|
z |\
b2[f'2d'2] f2[e'2c'2] | [d'2b2f2][d'2b2f2] [e'2c'2f2][c'2a2f2] |\
[d'2b2][d'2b2] f2[e'2c'2] | [d'2b2][c'2a2] b2B2 |
b2[f'2d'2] f2[e'2c'2] | [d'2b2f2][d'2b2f2] [e'2c'2f2][c'2a2f2] |\
d2[b2f2] e2[c'2g2] | b2[a2f2] [b2B2][bfdB] |]
